themes/etch/static/img/funders/fused.svg

<svg xmlns="http://www.w3.org/2000/svg" width="566" height="233" fill="none" viewBox="0 0 566 233"><path stroke="#000" stroke-width="7.566" d="m66 85.139 36.174 21.042M66 85.139l36.174-20.57M66 85.14v41.848m36.174-20.806 34.293 19.949a3.78 3.78 0 0 1 1.881 3.27v33.095c0 2.918-3.163 4.737-5.685 3.27L66 126.987m36.174-20.806v77.12c0 2.918-3.163 4.737-5.685 3.27L67.88 169.93A3.78 3.78 0 0 1 66 166.66v-39.673m36.174-20.806 72.584-41.611m-72.584 0 34.31-19.51a3.78 3.78 0 0 1 3.731-.005l34.543 19.515m-72.584 0 70.695 40.528a3.78 3.78 0 0 0 3.774-.006l28.794-16.64c2.534-1.465 2.516-5.13-.032-6.57L174.758 64.57"/><path fill="#000" d="M298.365 99.5h-30.301v14.3h23.917v9.447h-23.917v22.982h-11.746V90.052h42.047zm21.444 47.58q-4.257 0-7.661-1.532t-5.447-4.852q-1.958-3.405-1.958-8.767v-28.258h11.661v25.449q0 4.937 2.043 6.895 2.043 1.872 5.873 1.872a10.5 10.5 0 0 0 3.489-.596 8.2 8.2 0 0 0 2.979-2.042q1.363-1.362 2.128-3.49.766-2.213.766-5.192v-22.896h11.661v42.558h-10.384l-.426-7.406q-2.127 4.256-5.873 6.299-3.659 1.958-8.851 1.958m54.828 0q-6.47 0-11.831-2.298-5.277-2.3-8.597-6.469l6.724-6.809q2.043 3.063 5.447 5.021t8.086 1.958q3.32 0 5.278-.936 2.042-1.022 2.042-3.149 0-1.362-.936-2.299-.937-1.022-3.745-1.617l-7.49-1.532q-7.405-1.531-10.554-4.596-3.065-3.15-3.065-8.086 0-3.49 2.043-6.554 2.128-3.064 6.299-4.937 4.17-1.957 10.384-1.957 6.383 0 11.065 2.043 4.766 1.957 7.49 5.873l-6.98 6.809q-1.873-2.98-4.936-4.511-2.98-1.618-6.299-1.618-2.383 0-4.085.511t-2.554 1.447q-.85.852-.851 2.213 0 1.362 1.192 2.383 1.191.937 4.341 1.617l8.681 1.788q6.299 1.276 9.022 4.341 2.724 2.979 2.724 7.235 0 4.085-2.213 7.319-2.127 3.15-6.383 5.022-4.171 1.788-10.299 1.788m47.774 0q-6.724 0-11.745-2.639-4.937-2.638-7.661-7.575-2.723-4.936-2.723-11.916t2.723-11.916q2.724-4.938 7.575-7.576 4.938-2.638 11.236-2.638 6.468 0 10.98 2.638 4.51 2.555 6.894 7.065 2.383 4.426 2.383 10.129 0 1.702-.085 3.234a32 32 0 0 1-.255 2.724h-33.961v-8.086h28.854l-5.618 2.043q0-5.362-2.468-8.257-2.384-2.894-6.809-2.894-3.235 0-5.618 1.533-2.298 1.531-3.49 4.596-1.191 2.979-1.191 7.575 0 4.51 1.276 7.49 1.363 2.894 3.745 4.341 2.47 1.447 5.873 1.447 3.745 0 6.044-1.447t3.574-4l9.278 3.574q-1.362 3.32-4.171 5.703-2.724 2.383-6.554 3.66-3.745 1.191-8.086 1.192m45.631 0q-5.277 0-9.448-2.639-4.086-2.638-6.469-7.575-2.298-4.937-2.298-11.831 0-7.065 2.469-12.001 2.468-5.022 6.638-7.576 4.257-2.638 9.533-2.638 5.618 0 9.278 3.234t4.766 8.341l-1.106 1.362V85.031h11.661v61.198h-10.47l-.766-12.938 1.447.681q-.596 4-2.723 6.979a14.74 14.74 0 0 1-5.363 4.511q-3.234 1.618-7.149 1.618m3.404-8.937q3.064 0 5.278-1.532 2.213-1.618 3.404-4.682 1.277-3.065 1.277-7.32 0-4.085-1.192-6.894-1.191-2.894-3.404-4.426t-5.192-1.532q-4.767 0-7.49 3.404-2.64 3.32-2.639 9.789 0 6.468 2.639 9.873 2.639 3.32 7.319 3.32"/></svg>

<svg width="566" height="233" viewBox="0 0 566 233" fill="none" xmlns="http://www.w3.org/2000/svg">
<path d="M66 85.139L102.174 106.181M66 85.139L102.174 64.5695M66 85.139V126.987M102.174 106.181L136.467 126.13C137.631 126.807 138.348 128.052 138.348 129.4V162.495C138.348 165.413 135.185 167.232 132.663 165.765L66 126.987M102.174 106.181V183.301C102.174 186.219 99.0109 188.038 96.4889 186.571L67.8808 169.93C66.7164 169.252 66 168.007 66 166.66V126.987M102.174 106.181L174.758 64.5695M102.174 64.5695L136.484 45.0598C137.64 44.4024 139.057 44.4004 140.215 45.0546L174.758 64.5695M102.174 64.5695L172.869 105.098C174.039 105.769 175.476 105.766 176.643 105.092L205.437 88.4516C207.971 86.9869 207.953 83.3224 205.405 81.8827L174.758 64.5695" stroke="black" stroke-width="7.56579"/>
<path d="M298.365 99.5003H268.064V113.8H291.981V123.247H268.064V146.229H256.318V90.0525H298.365V99.5003ZM319.809 147.08C316.971 147.08 314.418 146.569 312.148 145.548C309.878 144.526 308.063 142.909 306.701 140.696C305.396 138.426 304.743 135.504 304.743 131.929V103.671H316.404V129.12C316.404 132.411 317.085 134.71 318.447 136.015C319.809 137.263 321.766 137.887 324.32 137.887C325.511 137.887 326.674 137.689 327.809 137.291C328.944 136.837 329.937 136.157 330.788 135.249C331.696 134.341 332.406 133.178 332.916 131.759C333.427 130.284 333.682 128.553 333.682 126.567V103.671H345.343V146.229H334.959L334.533 138.823C333.115 141.661 331.157 143.76 328.66 145.122C326.221 146.427 323.27 147.08 319.809 147.08ZM374.637 147.08C370.324 147.08 366.38 146.314 362.806 144.782C359.288 143.249 356.422 141.093 354.209 138.313L360.933 131.504C362.295 133.546 364.111 135.22 366.38 136.525C368.65 137.83 371.345 138.483 374.466 138.483C376.679 138.483 378.438 138.171 379.744 137.547C381.105 136.866 381.786 135.816 381.786 134.398C381.786 133.49 381.474 132.724 380.85 132.099C380.226 131.418 378.977 130.879 377.105 130.482L369.615 128.95C364.678 127.929 361.16 126.397 359.061 124.354C357.018 122.254 355.996 119.559 355.996 116.268C355.996 113.942 356.677 111.757 358.039 109.714C359.458 107.671 361.557 106.026 364.338 104.777C367.118 103.472 370.579 102.82 374.722 102.82C378.977 102.82 382.666 103.501 385.787 104.863C388.964 106.168 391.461 108.125 393.277 110.736L386.297 117.545C385.049 115.559 383.403 114.055 381.361 113.034C379.375 111.955 377.275 111.416 375.062 111.416C373.473 111.416 372.112 111.587 370.977 111.927C369.842 112.268 368.991 112.75 368.423 113.374C367.856 113.942 367.572 114.679 367.572 115.587C367.572 116.495 367.969 117.289 368.764 117.97C369.558 118.594 371.005 119.134 373.105 119.587L381.786 121.375C385.985 122.226 388.993 123.673 390.808 125.716C392.624 127.702 393.532 130.113 393.532 132.951C393.532 135.674 392.794 138.114 391.319 140.27C389.901 142.37 387.773 144.044 384.936 145.292C382.155 146.484 378.722 147.08 374.637 147.08ZM422.411 147.08C417.929 147.08 414.013 146.2 410.666 144.441C407.374 142.682 404.821 140.157 403.005 136.866C401.189 133.575 400.282 129.603 400.282 124.95C400.282 120.297 401.189 116.325 403.005 113.034C404.821 109.742 407.346 107.217 410.58 105.458C413.872 103.699 417.617 102.82 421.816 102.82C426.128 102.82 429.788 103.699 432.796 105.458C435.803 107.161 438.101 109.516 439.69 112.523C441.279 115.474 442.073 118.85 442.073 122.652C442.073 123.786 442.045 124.865 441.988 125.886C441.931 126.907 441.846 127.815 441.733 128.61H407.772V120.524H436.626L431.008 122.567C431.008 118.992 430.185 116.24 428.54 114.31C426.951 112.381 424.681 111.416 421.731 111.416C419.574 111.416 417.702 111.927 416.113 112.949C414.581 113.97 413.418 115.502 412.623 117.545C411.829 119.531 411.432 122.056 411.432 125.12C411.432 128.127 411.857 130.624 412.708 132.61C413.616 134.539 414.865 135.986 416.453 136.951C418.099 137.916 420.057 138.398 422.326 138.398C424.823 138.398 426.837 137.916 428.37 136.951C429.902 135.986 431.093 134.653 431.944 132.951L441.222 136.525C440.314 138.738 438.924 140.639 437.051 142.228C435.235 143.817 433.051 145.037 430.497 145.888C428.001 146.682 425.305 147.08 422.411 147.08ZM468.042 147.08C464.524 147.08 461.374 146.2 458.594 144.441C455.87 142.682 453.714 140.157 452.125 136.866C450.593 133.575 449.827 129.631 449.827 125.035C449.827 120.325 450.65 116.325 452.296 113.034C453.941 109.686 456.154 107.161 458.934 105.458C461.772 103.699 464.949 102.82 468.467 102.82C472.212 102.82 475.305 103.898 477.745 106.054C480.185 108.21 481.774 110.991 482.511 114.395L481.405 115.757V85.0307H493.066V146.229H482.596L481.83 133.291L483.277 133.972C482.88 136.639 481.972 138.965 480.554 140.951C479.135 142.881 477.348 144.384 475.191 145.462C473.035 146.541 470.652 147.08 468.042 147.08ZM471.446 138.143C473.489 138.143 475.248 137.632 476.724 136.611C478.199 135.532 479.334 133.972 480.128 131.929C480.979 129.886 481.405 127.446 481.405 124.609C481.405 121.886 481.008 119.587 480.213 117.715C479.419 115.786 478.284 114.31 476.809 113.289C475.333 112.268 473.603 111.757 471.617 111.757C468.439 111.757 465.942 112.892 464.127 115.161C462.367 117.374 461.488 120.637 461.488 124.95C461.488 129.262 462.367 132.553 464.127 134.823C465.886 137.036 468.326 138.143 471.446 138.143Z" fill="black"/>
</svg>
